public/OpenCart.svg

<svg width="93" height="92" viewBox="0 0 93 92" fill="none" xmlns="http://www.w3.org/2000/svg">
<path d="M1.8829 45.5109C1.86347 20.9876 21.8515 1.12225 46.5396 1.125C71.2276 1.12775 91.2767 21.0069 91.2878 45.4723C91.2989 69.9377 71.2998 89.8003 46.5729 89.8196C40.7024 89.8356 34.8866 88.7007 29.4594 86.48C24.0323 84.2593 19.1008 80.9967 14.9482 76.8795C10.7956 72.7623 7.50364 67.8717 5.2615 62.4885C3.01936 57.1053 1.87118 51.3356 1.8829 45.5109Z" fill="#3BC5F0"/>
<path d="M29.4403 30.5742C33.7405 31.1003 38.0463 31.6237 42.3743 31.7779C50.5444 32.0699 58.7173 32.1828 66.893 32.271C70.8573 32.3123 74.8271 32.4528 78.6748 33.6069C79.4227 33.8401 80.1137 34.2246 80.7042 34.7363C81.6952 35.5626 81.8146 36.5349 81.2233 37.6808C79.9824 40.1185 77.9586 41.8814 75.9625 43.6333C71.3958 47.6383 66.7542 51.5552 62.143 55.5079C61.8654 55.742 61.6211 56.0588 61.1464 55.8081C63.3506 52.5027 66.3377 49.8804 68.9806 46.9662C70.1521 45.6743 71.393 44.4376 72.2287 42.8813C73.2586 40.9531 72.8477 39.653 70.8933 38.7495C68.5947 37.6698 66.1073 37.4384 63.6255 37.2428C57.7679 36.7801 51.8936 37.0996 46.0332 36.9151C39.984 36.7278 33.9654 36.1824 28.1189 34.4884C27.4165 34.2845 26.667 34.1826 26.0646 33.7116C25.8841 33.3563 26.0812 33.0808 26.3089 32.8715C27.2482 31.9746 28.3008 31.2024 29.4403 30.5742Z" fill="#FEFEFE"/>
<path d="M30.9283 60.8164C33.7683 60.8164 35.7643 62.7446 35.781 65.499C35.7976 68.2535 33.6489 70.4792 30.9589 70.4571C29.6805 70.4463 28.4578 69.9365 27.5553 69.0379C26.6529 68.1394 26.1433 66.9245 26.1367 65.656C26.1284 62.7749 28.0523 60.8274 30.9283 60.8164Z" fill="#FEFEFE"/>
<path d="M48.5117 65.5551C48.5117 62.7813 50.5216 60.7925 53.3033 60.8008C56.085 60.8091 58.3003 63.0044 58.2476 65.6542C58.1948 68.271 55.8684 70.4911 53.2089 70.4663C50.6077 70.436 48.5062 68.2379 48.5117 65.5551Z" fill="#FEFEFE"/>
<path d="M29.4399 30.5766C28.6404 31.9538 26.8137 32.2596 26.0669 33.7002C20.4342 31.9897 16.456 28.362 13.7188 23.2717C14.1851 22.9825 14.435 23.3213 14.6932 23.5471C18.713 27.2161 23.5185 29.2627 28.8097 30.3204C29.0269 30.3874 29.2378 30.4731 29.4399 30.5766Z" fill="#FDFEFE"/>
</svg>

<svg xmlns="http://www.w3.org/2000/svg" width="93" height="92" fill="none" viewBox="0 0 93 92"><path fill="#3bc5f0" d="M1.883 45.51C1.863 20.989 21.852 1.123 46.54 1.126s44.737 19.882 44.748 44.347C91.298 69.938 71.3 89.8 46.573 89.82a44.9 44.9 0 0 1-17.114-3.34 44.6 44.6 0 0 1-14.51-9.6 44.2 44.2 0 0 1-9.687-14.391 43.9 43.9 0 0 1-3.38-16.978"/><path fill="#fefefe" d="M29.44 30.574c4.3.526 8.606 1.05 12.934 1.204 8.17.292 16.343.405 24.519.493 3.964.041 7.934.182 11.782 1.336a5.7 5.7 0 0 1 2.03 1.13c.99.826 1.11 1.798.518 2.944-1.24 2.438-3.264 4.2-5.26 5.952-4.567 4.005-9.209 7.922-13.82 11.875-.278.234-.522.55-.997.3 2.205-3.305 5.192-5.928 7.835-8.842 1.171-1.292 2.412-2.528 3.248-4.085 1.03-1.928.619-3.228-1.336-4.132-2.298-1.08-4.786-1.31-7.267-1.506-5.858-.463-11.732-.143-17.593-.328-6.049-.187-12.068-.733-17.914-2.427-.703-.203-1.452-.305-2.054-.776-.18-.356.016-.631.244-.84.94-.897 1.992-1.67 3.131-2.298M30.928 60.816c2.84 0 4.836 1.929 4.853 4.683.017 2.755-2.132 4.98-4.822 4.958a4.88 4.88 0 0 1-3.404-1.42 4.8 4.8 0 0 1-1.418-3.381c-.009-2.881 1.915-4.829 4.791-4.84M48.512 65.555c0-2.774 2.01-4.763 4.791-4.754 2.782.008 4.997 2.203 4.945 4.853-.053 2.617-2.38 4.837-5.04 4.812-2.6-.03-4.702-2.228-4.696-4.91"/><path fill="#fdfefe" d="M29.44 30.577c-.8 1.377-2.626 1.683-3.373 3.123-5.633-1.71-9.611-5.338-12.348-10.428.466-.29.716.05.974.275 4.02 3.67 8.826 5.716 14.117 6.773q.326.1.63.257"/></svg>
